icons/evolvere-blue-folders-flat-vivid-dark-fallback/apps/64/debreate.svg

<?xml version="1.0" encoding="UTF-8" standalone="no"?>
<!-- Created with Inkscape (http://www.inkscape.org/) -->

<svg
   xmlns:dc="http://purl.org/dc/elements/1.1/"
   xmlns:cc="http://creativecommons.org/ns#"
   xmlns:rdf="http://www.w3.org/1999/02/22-rdf-syntax-ns#"
   xmlns:svg="http://www.w3.org/2000/svg"
   xmlns="http://www.w3.org/2000/svg"
   xmlns:sodipodi="http://sodipodi.sourceforge.net/DTD/sodipodi-0.dtd"
   xmlns:inkscape="http://www.inkscape.org/namespaces/inkscape"
   width="64"
   height="64"
   id="svg13094"
   version="1.1"
   inkscape:version="0.91+devel r"
   sodipodi:docname="debreate.svg">
  <sodipodi:namedview
     id="base"
     pagecolor="#ffffff"
     bordercolor="#666666"
     borderopacity="1.0"
     inkscape:pageopacity="0"
     inkscape:pageshadow="2"
     inkscape:zoom="11.313709"
     inkscape:cx="31.084858"
     inkscape:cy="31.222468"
     inkscape:document-units="px"
     inkscape:current-layer="svg13094"
     showgrid="true"
     inkscape:snap-bbox="true"
     inkscape:bbox-paths="true"
     inkscape:bbox-nodes="true"
     inkscape:snap-bbox-edge-midpoints="true"
     inkscape:snap-bbox-midpoints="true"
     inkscape:object-paths="true"
     inkscape:snap-intersection-paths="true"
     inkscape:object-nodes="true"
     inkscape:snap-smooth-nodes="true"
     inkscape:snap-midpoints="true"
     inkscape:snap-object-midpoints="true"
     inkscape:snap-center="true"
     showguides="true"
     inkscape:guide-bbox="true"
     inkscape:window-width="1920"
     inkscape:window-height="1023"
     inkscape:window-x="-10"
     inkscape:window-y="35"
     inkscape:window-maximized="1"
     inkscape:snap-global="true"
     fit-margin-top="0"
     fit-margin-left="0"
     fit-margin-right="0"
     fit-margin-bottom="0"
     showborder="true"
     inkscape:showpageshadow="false"
     inkscape:snap-page="true">
    <inkscape:grid
       type="xygrid"
       id="grid3075"
       empspacing="5"
       visible="true"
       enabled="true"
       snapvisiblegridlinesonly="true"
       originx="1.6362304e-08px"
       originy="18px" />
  </sodipodi:namedview>
  <defs
     id="defs13096" />
  <metadata
     id="metadata13099">
    <rdf:RDF>
      <cc:Work
         rdf:about="">
        <dc:format>image/svg+xml</dc:format>
        <dc:type
           rdf:resource="http://purl.org/dc/dcmitype/StillImage" />
        <dc:title></dc:title>
      </cc:Work>
    </rdf:RDF>
  </metadata>
  <path
     inkscape:connector-curvature="0"
     style="color:#000000;fill:#2255a7;fill-opacity:1;fill-rule:nonzero;stroke:none;stroke-width:2.28571415;marker:none;visibility:visible;display:inline;overflow:visible;enable-background:accumulate"
     d="m 0,4 0,30 0,28 2,2 30,0 30,0 2,-2 L 64,34 64,4 32,4 0,4 z"
     id="path4095" />
  <path
     inkscape:connector-curvature="0"
     style="color:#000000;fill:#3986e4;fill-opacity:1;fill-rule:nonzero;stroke:none;stroke-width:2.28571415000000000;marker:none;visibility:visible;display:inline;overflow:visible;enable-background:accumulate"
     d="M 2,0 0,1 0,4 32,4 64,4 64,1 62,0 32,0 2,0 z"
     id="path4090" />
  <path
     style="fill:#60a0ef;fill-opacity:1;fill-rule:nonzero"
     d="M 0,3 0,6 2,4 Z"
     id="path4298"
     inkscape:connector-curvature="0"
     sodipodi:nodetypes="cccc" />
  <path
     d="M 64,6 62,4 64,3 z"
     id="path3028"
     style="fill:#2d6cc4;fill-opacity:1"
     inkscape:connector-curvature="0" />
  <g
     id="g3043"
     inkscape:export-filename="folder.png"
     inkscape:export-xdpi="90"
     inkscape:export-ydpi="90"
     transform="translate(-0.62500009,0.082283)" />
  <g
     id="scalable"
     transform="matrix(1.0385892,0,0,1.0385892,1214.7222,1878.8121)"
     inkscape:label="#g3701"
     style="fill:#ffffff" />
  <path
     style="font-size:50.42954254px;font-style:normal;font-variant:normal;font-weight:bold;font-stretch:normal;line-height:125%;letter-spacing:0px;word-spacing:0px;fill:#e6545b;fill-opacity:1;stroke:none;font-family:Serif;-inkscape-font-specification:Serif Bold"
     d="m 15.34375,15.9375 0,2.65625 2.125,0 c 0.361145,3.3e-5 0.688095,0.04295 1,0.125 0.311897,0.0657 0.582673,0.192877 0.8125,0.40625 0.246232,0.213439 0.431168,0.527136 0.5625,0.9375 0.131321,0.394012 0.187494,0.92073 0.1875,1.59375 l 0,24.3125 c -6e-6,0.722303 -0.05618,1.291942 -0.1875,1.71875 -0.131332,0.426816 -0.301434,0.738931 -0.53125,0.96875 -0.229828,0.229825 -0.500603,0.38667 -0.8125,0.46875 -0.311905,0.06566 -0.653689,0.125003 -1.03125,0.125 l -2.125,0 0,2.6875 12.65625,0 0,-3.15625 L 28,19 l 0,-3.0625 -12.65625,0 z M 31,15.9375 31,19 c 3.367499,0.02894 5.921631,1.213083 7.65625,3.53125 1.772887,2.347496 2.656223,5.908924 2.65625,10.71875 -2.7e-5,2.413148 -0.213048,4.579358 -0.65625,6.5 -0.443254,1.904251 -1.113569,3.528908 -2,4.875 -0.870065,1.346107 -1.968003,2.402707 -3.28125,3.125 -1.272351,0.683882 -2.717476,1.009935 -4.375,1.03125 l 0,3.15625 1,0 c 2.938419,0 5.502584,-0.472127 7.71875,-1.375 2.23253,-0.919286 4.099876,-2.202159 5.59375,-3.84375 1.510226,-1.641579 2.651086,-3.593186 3.40625,-5.875 0.755094,-2.298208 1.124964,-4.835869 1.125,-7.59375 -3.6e-5,-2.85634 -0.397992,-5.364332 -1.21875,-7.53125 -0.804412,-2.166866 -1.988191,-3.961624 -3.53125,-5.40625 -1.526705,-1.460979 -3.408886,-2.558917 -5.625,-3.28125 C 37.269,16.292572 34.790676,15.937536 32,15.9375 l -1,0 z"
     id="path3803"
     inkscape:connector-curvature="0" />
</svg>

<svg xmlns="http://www.w3.org/2000/svg" viewBox="0 0 64 64"><g color="#000"><path d="m0 4v30 28l2 2h30 30l2-2v-28-30h-32-32" fill="#2255a7"/><path d="m2 0l-2 1v3h32 32v-3l-2-1h-30-30" fill="#3986e4"/></g><path d="m0 3v3l2-2" fill="#60a0ef"/><path d="m64 6l-2-2 2-1z" fill="#2d6cc4"/><path d="m15.344 15.938v2.656h2.125c.361 0 .688.043 1 .125.312.066.583.193.813.406.246.213.431.527.563.938.131.394.187.921.188 1.594v24.313c0 .722-.056 1.292-.188 1.719-.131.427-.301.739-.531.969-.23.23-.501.387-.813.469-.312.066-.654.125-1.031.125h-2.125v2.688h12.656v-3.156-29.781-3.063h-12.656m15.656 0v3.063c3.367.029 5.922 1.213 7.656 3.531 1.773 2.347 2.656 5.909 2.656 10.719 0 2.413-.213 4.579-.656 6.5-.443 1.904-1.114 3.529-2 4.875-.87 1.346-1.968 2.403-3.281 3.125-1.272.684-2.717 1.01-4.375 1.031v3.156h1c2.938 0 5.503-.472 7.719-1.375 2.233-.919 4.1-2.202 5.594-3.844 1.51-1.642 2.651-3.593 3.406-5.875.755-2.298 1.125-4.836 1.125-7.594 0-2.856-.398-5.364-1.219-7.531-.804-2.167-1.988-3.962-3.531-5.406-1.527-1.461-3.409-2.559-5.625-3.281-2.2-.739-4.678-1.094-7.469-1.094h-1" fill="#e6545b"/></svg>
